www/assets/icons/h_plus_mobiledata.svg

<svg xmlns="http://www.w3.org/2000/svg" width="24" height="24" viewBox="0 0 24 24" fill='currentColor'><path d="M11 11H5V7H3v10h2v-4h6v4h2V7h-2zm10 0h-2V9h-2v2h-2v2h2v2h2v-2h2z"/></svg>

<svg width="24" height="24" viewBox="0 0 24 24" xmlns="http://www.w3.org/2000/svg" fill='currentColor'><path d="M11 11H5V7H3V17H5V13H11V17H13V7H11V11ZM21 11H19V9H17V11H15V13H17V15H19V13H21V11Z"/></svg>
